X: 14322
T: Gallagher's Frolics
R: jig
M: 6/8
K: Edorian
|:"Em"~E3 GFE|~B3 "D"dBA|"Em"~B3 BAB|"G"GBG "D"AFD|
"Em"~E3 GFE|BAB "D"dBA|"Em"BAG "D"FAF|1 "Em"GED E2 D:|2 "Em"GEE E2 B||
|:"Em"e2f gfe|g2a "G"bge|"D"d2e fed|fag "Bm"fed|
"C"e2g gfe|"D"dfe dBA|"Em"BAG "D"FAF|1 "Em"GED E2 e:|2 "Em"GED E2D||

